assets/features/channel/southeast-asia1/affin-bank.svg

<svg width="80" height="80" viewBox="0 0 80 80" fill="none" xmlns="http://www.w3.org/2000/svg">
<rect x="0.5" y="0.5" width="79" height="79" rx="7.5" fill="white"/>
<rect x="0.5" y="0.5" width="79" height="79" rx="7.5" stroke="#EEEEEE"/>
<path d="M30.3272 24.6305C30.5054 25.4026 30.6242 26.1153 30.8322 26.828C31.3669 28.6394 32.466 30.0945 33.8621 31.3417C34.2483 31.6683 34.6641 32.0247 35.1097 32.2028C35.6444 32.4107 35.6741 32.8264 35.6444 33.2422C35.6444 34.0143 35.5256 34.7566 35.4365 35.499C35.4365 35.6772 35.3177 35.7069 35.1394 35.6475C33.8621 35.0833 32.6739 34.3409 31.6342 33.4204C30.238 32.2028 29.1984 30.7478 28.4557 29.0848C28.0101 28.1049 27.6834 27.0952 27.5349 26.0559C27.4457 25.2244 27.3269 24.3929 27.3269 23.5615C27.3269 22.6706 27.5051 21.7798 27.624 20.7998C28.4557 20.9483 29.1687 21.0374 29.8816 21.2452C31.2777 21.6016 32.5551 22.1955 33.7433 22.9973C35.4365 24.1257 36.7435 25.6105 37.7535 27.3625C38.5556 28.7879 39.0605 30.3023 39.2685 31.9059C39.5358 34.0143 39.2982 36.0929 38.5258 38.1122C38.407 38.4092 38.4664 38.5577 38.7338 38.7358C39.1794 39.0328 39.625 39.3297 40.0408 39.6564C41.437 38.528 42.952 37.6668 44.6749 37.1917C45.7443 36.8947 46.8434 36.7165 47.9722 36.6868C49.5466 36.6868 51.0615 36.865 52.5468 37.3995C54.0024 37.9044 55.3094 38.6467 56.4679 39.6564C57.9829 40.9333 59.1117 42.5071 59.9434 44.2889C60.0326 44.4967 60.0326 44.5858 59.8246 44.7046C58.5176 45.447 57.0917 45.9815 55.6064 46.2191C54.5371 46.3675 53.4082 46.4269 52.3389 46.3675C50.4377 46.2488 48.6554 45.6549 47.0216 44.6749C46.279 44.2295 45.566 43.6653 44.8828 43.1011C44.4669 42.7744 44.1402 42.3587 43.754 42.0023C43.6649 41.9132 43.6352 41.8242 43.5461 41.7351C44.4372 41.1709 45.4175 40.8442 46.4275 40.6066C46.5166 40.6066 46.6354 40.6363 46.6948 40.6957C48.0613 42.032 49.6951 42.8635 51.5665 43.2495C52.4874 43.4574 53.438 43.5168 54.3885 43.3683C54.7747 43.3089 55.1609 43.2792 55.6064 43.1604C54.4479 41.7054 52.9627 40.7254 51.2101 40.1612C47.5266 39.0031 44.1996 40.1612 42.0608 41.9429C43.8431 44.467 44.6452 47.3475 44.3778 50.4061C44.1105 53.8508 42.5955 56.7609 39.8923 59.1069C39.5358 58.7505 39.0903 58.3942 38.7635 57.9488C38.2288 57.2955 37.7535 56.6125 37.3079 55.9295C36.5356 54.7417 36.0009 53.4054 35.793 52.0097C35.6444 51.0297 35.5256 50.0498 35.5256 49.0698C35.5256 47.4663 35.8524 45.9221 36.5059 44.467C36.8623 43.695 37.3079 42.9229 37.7535 42.1805C37.902 41.9429 37.8426 41.7945 37.6347 41.646C37.397 41.4678 37.1297 41.2896 36.8921 41.1412C35.7632 42.6259 34.4265 43.8137 32.7927 44.7343C31.6342 45.3876 30.3866 45.8627 29.1092 46.0706C28.0696 46.2488 26.9705 46.3379 25.9308 46.3082C24.0296 46.2191 22.2473 45.6846 20.5541 44.7937C19.9006 44.4373 19.8709 44.4373 20.2273 43.7544C20.8214 42.6556 21.5047 41.6163 22.3364 40.6957C23.4058 39.5079 24.6831 38.5874 26.109 37.8747C27.2675 37.3105 28.4557 36.8947 29.7331 36.7759C30.743 36.6868 31.7233 36.5978 32.7333 36.6572C33.5948 36.7165 34.4562 36.9541 35.288 37.1323C35.5256 37.1917 35.6741 37.2214 35.7632 36.8947C36.2088 35.6178 36.4465 34.2815 36.3277 32.9452C36.1791 31.1041 35.5553 29.4115 34.4859 27.897C33.4462 26.4716 32.1095 25.4026 30.5351 24.6602C30.5351 24.6602 30.4757 24.6602 30.2975 24.6602L30.3272 24.6305ZM24.3861 42.9823C27.8022 43.9325 31.8421 42.5368 34.0106 39.8939C31.1292 39.0625 26.911 39.9236 24.3861 42.9823ZM39.9517 54.415C40.8726 53.0193 41.3182 51.5346 41.437 49.9607C41.5855 47.9414 41.0805 46.0409 40.0111 44.2295C38.1397 47.6148 38.0803 50.9703 39.9814 54.415H39.9517ZM40.0705 39.597C40.0705 39.597 40.0705 39.6267 40.0705 39.6564V39.597Z" fill="#0867B2"/>
<path d="M53.0815 23.8881C51.6556 24.0069 50.3486 24.2148 49.1604 24.8087C48.5068 25.1353 47.883 25.5807 47.2889 26.0262C46.4275 26.6498 45.7739 27.4813 45.2095 28.3721C44.4966 29.5599 43.9916 30.8071 43.7837 32.1731C43.6946 32.8561 43.6351 33.5688 43.6351 34.2815C43.6351 34.7566 43.7243 35.2021 43.8134 35.6772C43.8728 35.9444 43.8431 36.0632 43.546 36.1226C42.6846 36.3305 41.8231 36.5977 40.9914 36.8353C40.6052 35.4693 40.5755 34.1033 40.6646 32.767C40.7537 31.2526 41.1399 29.7975 41.7637 28.3721C42.5063 26.7092 43.5757 25.2838 44.8828 24.0663C46.071 22.9972 47.4077 22.1361 48.9227 21.6016C50.0218 21.2155 51.1209 20.8889 52.3091 20.8592C52.5765 20.8592 52.6656 20.9483 52.6953 21.2155C52.8141 22.1064 52.9329 22.9972 53.0518 23.9178L53.0815 23.8881Z" fill="#0867B2"/>
<path d="M49.3981 31.9652C48.6258 32.0246 47.8831 31.3713 47.8534 30.4211C47.8534 29.6193 48.6258 28.8472 49.3981 28.9066C50.2596 28.966 50.8834 29.4708 50.9131 30.4508C50.9428 31.3416 50.1407 32.0246 49.3981 31.9652Z" fill="#ED2E30"/>
<path d="M46.3087 31.9652C47.1702 31.9652 47.9128 32.5888 47.8831 33.45C47.8534 34.3408 47.3484 34.9941 46.3384 35.0238C45.5364 35.0238 44.8235 34.4002 44.8235 33.4797C44.8235 32.6779 45.5661 31.9058 46.3384 31.9652H46.3087Z" fill="#ED2E30"/>
<path d="M51.21 25.1357C51.9824 24.9872 52.7844 25.8484 52.7547 26.6502C52.725 27.3925 52.0715 28.1646 51.1803 28.1349C50.3783 28.1052 49.6653 27.4222 49.695 26.5611C49.695 25.8484 50.3486 25.0169 51.21 25.106V25.1357Z" fill="#ED2E30"/>
</svg>

<svg xmlns="http://www.w3.org/2000/svg" width="80" height="80" fill="none" viewBox="0 0 80 80"><rect width="79" height="79" x=".5" y=".5" fill="#fff" rx="7.5"/><rect width="79" height="79" x=".5" y=".5" stroke="#eee" rx="7.5"/><path fill="#0867b2" d="M30.327 24.63c.178.773.297 1.485.505 2.198.535 1.811 1.634 3.267 3.03 4.514.386.326.802.683 1.248.86.534.209.564.624.534 1.04 0 .772-.118 1.515-.207 2.257 0 .178-.12.208-.298.148a13.5 13.5 0 0 1-3.505-2.227c-1.396-1.217-2.436-2.672-3.178-4.335-.446-.98-.773-1.99-.921-3.03-.09-.83-.208-1.662-.208-2.494 0-.89.178-1.781.297-2.761.832.148 1.545.237 2.258.445 1.396.357 2.673.95 3.861 1.752 1.694 1.129 3 2.613 4.01 4.366a12.5 12.5 0 0 1 1.516 4.543c.267 2.108.03 4.187-.743 6.206-.119.297-.06.446.208.624.445.297.891.594 1.307.92 1.396-1.128 2.911-1.99 4.634-2.464a13.6 13.6 0 0 1 3.297-.505c1.575 0 3.09.178 4.575.713a11.8 11.8 0 0 1 3.92 2.256c1.516 1.277 2.645 2.851 3.476 4.633.09.208.09.297-.118.416-1.307.742-2.733 1.276-4.219 1.514-1.069.148-2.198.208-3.267.148-1.901-.118-3.684-.712-5.317-1.692-.743-.445-1.456-1.01-2.14-1.574-.415-.327-.742-.742-1.128-1.099-.09-.089-.119-.178-.208-.267.891-.564 1.871-.89 2.882-1.128.089 0 .207.03.267.089 1.366 1.336 3 2.168 4.871 2.553a7.5 7.5 0 0 0 2.822.12c.387-.06.773-.09 1.218-.209-1.158-1.455-2.643-2.435-4.396-2.999-3.683-1.158-7.01 0-9.15 1.782 1.783 2.524 2.585 5.404 2.318 8.463-.267 3.445-1.782 6.355-4.486 8.7-.356-.355-.802-.712-1.129-1.157a23 23 0 0 1-1.455-2.02c-.772-1.187-1.307-2.524-1.515-3.92-.149-.98-.267-1.96-.267-2.94 0-1.603.326-3.147.98-4.602.356-.772.802-1.544 1.248-2.286.148-.238.089-.386-.12-.535a11 11 0 0 0-.742-.505 13.2 13.2 0 0 1-4.1 3.593c-1.158.654-2.405 1.129-3.683 1.337-1.04.178-2.139.267-3.178.237-1.901-.089-3.684-.623-5.377-1.514-.653-.357-.683-.357-.327-1.04.594-1.098 1.278-2.138 2.11-3.058 1.069-1.188 2.346-2.109 3.772-2.821 1.158-.565 2.347-.98 3.624-1.1 1.01-.088 1.99-.177 3-.118.862.06 1.723.297 2.555.475.238.06.386.09.475-.237.446-1.277.684-2.614.565-3.95a10.04 10.04 0 0 0-1.842-5.048c-1.04-1.425-2.376-2.494-3.95-3.237h-.239zm-5.94 18.352c3.415.95 7.455-.445 9.624-3.088-2.882-.831-7.1.03-9.625 3.088m15.565 11.433c.92-1.396 1.366-2.88 1.485-4.454.149-2.02-.356-3.92-1.426-5.731-1.871 3.385-1.93 6.74-.03 10.185zm.119-14.818v.06z"/><path fill="#0867b2" d="M53.082 23.888c-1.426.119-2.733.327-3.922.92-.653.327-1.277.773-1.871 1.218-.861.624-1.515 1.455-2.08 2.346-.712 1.188-1.217 2.435-1.425 3.801-.09.683-.149 1.396-.149 2.108 0 .476.09.921.178 1.396.06.267.03.386-.267.446-.861.208-1.723.475-2.555.712-.386-1.366-.416-2.732-.326-4.068.089-1.514.475-2.97 1.099-4.395.742-1.663 1.812-3.088 3.119-4.306 1.188-1.069 2.525-1.93 4.04-2.464 1.099-.387 2.198-.713 3.386-.743.268 0 .357.09.386.356.12.891.238 1.782.357 2.703z"/><path fill="#ed2e30" d="M49.398 31.965c-.772.06-1.515-.594-1.545-1.544 0-.802.773-1.574 1.545-1.514.862.059 1.485.564 1.515 1.544.03.89-.772 1.574-1.515 1.514m-3.089 0c.861 0 1.604.624 1.574 1.485-.03.89-.535 1.544-1.545 1.574a1.51 1.51 0 0 1-1.514-1.544c0-.802.742-1.574 1.514-1.515zm4.901-6.829c.772-.149 1.574.712 1.545 1.514-.03.742-.684 1.515-1.575 1.485-.802-.03-1.515-.713-1.485-1.574 0-.713.654-1.544 1.515-1.455z"/></svg>
